X:1
T:Hampstead (Horner), CM
T:Egbert Foster Horner, 1904
T:Hampstead (Horner), CM
T:Public Domain
C:Egbert Foster Horner, 1904
Z:Public Domain
%%score ( 1 2 ) ( 3 4 )
L:1/8
M:4/4
K:G
V:1 treble 
V:2 treble 
V:3 bass 
V:4 bass 
V:1
 [GB]2 | [GB]2 [FB]2 [Ec]2 [CE]2 | C2 z F [CF]2 [A,E]2 | D2 [DG]2 [EA]2 [EB]2 | [FA]6 [FA]2 | %5
 [DB]2 [DB]2 [Dc]2 [DB]2 | [CA]2 [CE]2 [DB]2 [CA]2 | [B,G]2 (FG) [DB]2 [=CA]2 | [B,G]6 |] %9
V:2
 x2 | x8 | G3 C2 x3 | D2 x6 | x8 | x8 | x8 | x2 ^C2 x4 | x6 |] %9
V:3
 [G,D]2 | [G,D]2 [G,D]2 [A,C]2 (CB,) | [D,A,]2 [D,A,]2 [D,A,]2 [C,F,]2 | %3
 [B,,G,]2 [B,,G,]2 [A,,C]2 [A,,C]2 | (C2 E2 D2) [D,C]2 | [G,B,]2 [=F,A,]2 [E,^G,]2 [E,G,]2 | %6
 [A,,A,]2 [A,,G,]2 [D,F,]2 [D,F,]2 | [E,G,]2 [A,,G,]2 [D,F,]2 [D,F,]2 | [G,,G,]6 |] %9
V:4
 x2 | x6 C,2 | x8 | x8 | D,6 x2 | x8 | x8 | x8 | x6 |] %9

